X:1
T:RVW2/1/5 When I Was Young [Broken-Down Gentleman]
T:RVW2/1/5 When I Was Young [Broken-Down Gentleman]
T:Sung in the "Shoulder of Mutton," Hadleigh, Sept 1 1907 by Warner
T:Transcribed by Simon Furey and Lewis Jones
C:Transcribed by Simon Furey and Lewis Jones
L:1/8
Q:1/4=116
M:6/8
K:G
V:1 treble 
V:1
"^(editorial suggestion)" E | G2 B B2 B | A2 F D2 D | E2 F G2 A | B3 z z E | E2 B B2 B | %6
 A2 F D2 D | EFG AGF | E3 z z D | E2 F G2 A | B2 B E2 D | E2 F G2 A | B3 B2 A |[M:9/8] GAB d3 e3 | %14
[M:6/8] dBG D2 D | EFG AGF | E3 z z |] %17

